src/lib/packages/icons/src/assets/filled/folder-music.svg

<svg width="24" height="24" viewBox="0 0 24 24" fill="none" xmlns="http://www.w3.org/2000/svg">
<path d="M18 7H13L10 4H6C4 4 3 5 3 7V17C3 19 4 20 6 20H18C20 20 21 19 21 17V10C21 8 20 7 18 7ZM15.833 11.296C15.833 11.806 15.506 12.214 14.979 12.36L12.562 13.035C12.399 13.082 12.2781 13.279 12.2781 13.5V15.944C12.2781 17.078 11.3559 18 10.2229 18C9.0889 18 8.16699 17.078 8.16699 15.944C8.16699 14.811 9.0889 13.889 10.2229 13.889C10.6099 13.889 10.9681 14.003 11.2781 14.19V10.98C11.2781 10.365 11.6931 9.815 12.2881 9.642L14.3501 9.06299C14.8801 8.91199 15.225 9.05499 15.417 9.20099C15.606 9.34499 15.833 9.63199 15.833 10.184V11.296Z" fill="currentColor"/>
</svg>

<svg xmlns="http://www.w3.org/2000/svg" width="24" height="24" fill="none"><path fill="currentColor" d="M18 7h-5l-3-3H6C4 4 3 5 3 7v10c0 2 1 3 3 3h12c2 0 3-1 3-3v-7c0-2-1-3-3-3Zm-2.167 4.296c0 .51-.327.918-.854 1.064l-2.417.675c-.163.047-.284.244-.284.465v2.444A2.058 2.058 0 0 1 10.223 18a2.058 2.058 0 0 1-2.056-2.056c0-1.133.922-2.055 2.056-2.055.387 0 .745.114 1.055.301v-3.21c0-.615.415-1.165 1.01-1.338l2.062-.579c.53-.151.875-.008 1.067.138.189.144.416.431.416.983v1.112Z"/></svg>
